assets/images/checkbox.svg

<svg width="17" height="13" viewBox="0 0 17 13" fill="none" xmlns="http://www.w3.org/2000/svg">
<path fill-rule="evenodd" clip-rule="evenodd" d="M8.60201 11.832L16.252 4.182C17.204 3.23001 17.204 1.666 16.252 0.714C15.3 -0.238 13.736 -0.238 12.784 0.714L6.86801 6.63001L4.182 3.944C3.23001 2.992 1.666 2.992 0.714 3.944C-0.238 4.896 -0.238 6.46001 0.714 7.41201L5.134 11.832C5.61 12.308 6.22201 12.546 6.86801 12.546C7.51401 12.546 8.12601 12.308 8.60201 11.832Z" fill="#459B52"/>
</svg>

<svg width="17" height="13" fill="none" xmlns="http://www.w3.org/2000/svg"><path fill-rule="evenodd" clip-rule="evenodd" d="M8.602 11.832l7.65-7.65a2.463 2.463 0 000-3.468 2.463 2.463 0 00-3.468 0L6.868 6.63 4.182 3.944a2.463 2.463 0 00-3.468 0 2.463 2.463 0 000 3.468l4.42 4.42a2.416 2.416 0 001.734.714c.646 0 1.258-.238 1.734-.714z" fill="#459B52"/></svg>
